X: 17468
T: Highway To Kilkenny
R: slip jig
M: 9/8
K: Dmajor
||F|:AAA dfd cec|AAA dfd fga|AAA dfd ece|GBB gfe dBG:|
|:aga f/g/af g2e|aga f/g/af ecA|aga f/g/af g2d|GBB gfe dBG:|
|:B||AFA dfe de2|AFA dfe fa2|AFA dfe deA|BGB gfe dc:|
|:e||a2g f/g/af g2e|a2g f/g/af abg|a2g f/g/af g2e|BGB gfe dc:|

